X:1
T:Title
%%score ( 1 2 ) { 3 | 4 }
L:1/8
Q:1/4=105
M:2/4
K:G
V:1 treble nm="Grand Piano, Soprano"
V:2 treble 
V:3 treble nm="Choir Pad, Verona, Deane"
V:4 bass 
V:1
 [B,D]2 [DG]2 | [DG]2 [DF]2 | [DF]2 [CE]2 | E2 z2 | [B,G]2 [=Fd]2 | [Ed]2 [DB]2 | [^CB]2 [CA]2 | %7
w: By~John~H.~Deane *|||||||
 [DA]4 | [DB]2 [Ee]2 | [Ad]2 [DA]2 | [EG]2 [Gc]2 | [FB]2 F2 | [CE]2 [EA]2 | [EG]2 [CF]2 | %14
w: |||||||
 [B,E]2 [B,^D]2 | [B,E]4 | [B,D]2 [DG]2 | [DG]2 [DF]2 | [DF]2 [CE]2 | E2 z2 | [B,G]2 [=Fd]2 | %21
w: |||||||
 [Ec]2 [DB]2 | [^CA]2 [DB]2 | [B,G]4- | [B,G]4 |] %25
w: ||||
V:2
 x4 | x4 | x4 | C2- [CD]2 | x4 | x4 | x4 | x4 | x4 | x4 | x4 | x4 | x4 | x4 | x4 | x4 | x4 | x4 | %18
 x4 | C2- [CD]2 | x4 | x4 | x4 | x4 | x4 |] %25
V:3
 B,2 B,2 | C2 C2 | C2[K:bass] A,2 | A,4 | G,2 G,2 | G,2 G,2 | G,2 G,2 | F,4 | G,2 B,2 | A,2 A,2 | %10
 B,2[K:treble] C2 | D2 B,2 | G,2 C2 | B,2 A,2 | G,2 F,2 | G,4 | B,2 B,2 | C2 C2 | C2 A,2 | A,4 | %20
 G,2 G,2 | G,2 G,2 | G,2 F,2 | G,4- | G,4 |] %25
V:4
 G,2 G,2 | A,2 A,2 | A,2 G,2 | F,4 | E,2 B,,2 | C,2 D,2 | E,2 A,,2 | D,4 | z2 G,2 | F,2 F,2 | %10
 E,2 E,2 | D,4 | C,2 A,,2 | E,2 A,,2 | B,,2 B,,2 | E,4 | G,2 G,2 | A,2 A,2 | A,2 G,2 | F,4 | %20
 E,2 B,,2 | C,2 D,2 | E,2 D,2 | G,,4- | G,,4 |] %25

